htdocs/bitrix/js/ui/icons/service/images/ui-service-ownsite.svg

<svg width="42" height="42" viewBox="-12 -13 42 42" fill="none" xmlns="http://www.w3.org/2000/svg">
<path fill-rule="evenodd" clip-rule="evenodd" d="M17.831 0H0.169014C0.084507 0 0 0.0867663 0 0.173533V15.7915C0 15.8782 0.084507 15.965 0.169014 15.965H17.831C17.9155 15.965 18 15.8782 18 15.7915V0.173533C18 0.0867663 17.9155 0 17.831 0V0ZM15.2949 1.6486C15.2949 1.47507 15.3794 1.38831 15.5484 1.38831H16.3935C16.5625 1.38831 16.647 1.47507 16.647 1.6486V2.51627C16.647 2.6898 16.5625 2.77657 16.3935 2.77657H15.5484C15.3794 2.77657 15.2949 2.6898 15.2949 2.51627V1.6486V1.6486ZM13.0977 1.6486C13.0977 1.47507 13.1822 1.38831 13.3512 1.38831H14.1962C14.3653 1.38831 14.4498 1.47507 14.4498 1.6486V2.51627C14.4498 2.6898 14.3653 2.77657 14.1962 2.77657H13.3512C13.1822 2.77657 13.0977 2.6898 13.0977 2.51627V1.6486V1.6486ZM1.4375 1.6486C1.4375 1.47507 1.52201 1.38831 1.69102 1.38831H10.2262C10.3952 1.38831 10.4798 1.47507 10.4798 1.6486V2.51627C10.4798 2.6898 10.3952 2.77657 10.2262 2.77657H1.69102C1.52201 2.77657 1.4375 2.6898 1.4375 2.51627V1.6486V1.6486ZM16.7325 15.0105H1.18321C1.01419 15.0105 0.929688 14.9238 0.929688 14.7502V4.68535C0.929688 4.51182 1.01419 4.42505 1.18321 4.42505H16.7325C16.9015 4.42505 16.986 4.51182 16.986 4.68535V14.7502C16.986 14.9238 16.9015 15.0105 16.7325 15.0105Z" fill="white"/>
<path d="M8.85156 13H4.36035V12.0552L5.97314 10.4248C6.45068 9.93555 6.7627 9.59717 6.90918 9.40967C7.05566 9.21924 7.16113 9.04346 7.22559 8.88232C7.29004 8.72119 7.32227 8.5542 7.32227 8.38135C7.32227 8.12354 7.25049 7.93164 7.10693 7.80566C6.96631 7.67969 6.77734 7.6167 6.54004 7.6167C6.29102 7.6167 6.04932 7.67383 5.81494 7.78809C5.58057 7.90234 5.33594 8.06494 5.08105 8.27588L4.34277 7.40137C4.65918 7.13184 4.92139 6.94141 5.12939 6.83008C5.3374 6.71875 5.56445 6.63379 5.81055 6.5752C6.05664 6.51367 6.33203 6.48291 6.63672 6.48291C7.03809 6.48291 7.39258 6.55615 7.7002 6.70264C8.00781 6.84912 8.24658 7.0542 8.4165 7.31787C8.58643 7.58154 8.67139 7.8833 8.67139 8.22314C8.67139 8.51904 8.61865 8.79736 8.51318 9.05811C8.41064 9.31592 8.24951 9.58105 8.02979 9.85352C7.81299 10.126 7.4292 10.5142 6.87842 11.0181L6.05225 11.7959V11.8574H8.85156V13ZM13.9305 11.6685H13.1571V13H11.8299V11.6685H9.08772V10.7236L11.9046 6.5752H13.1571V10.6138H13.9305V11.6685ZM11.8299 10.6138V9.52393C11.8299 9.34229 11.8372 9.07861 11.8519 8.73291C11.8665 8.38721 11.8782 8.18652 11.887 8.13086H11.8519C11.7435 8.37109 11.6131 8.60547 11.4608 8.83398L10.283 10.6138H11.8299Z" fill="white"/>
</svg>

<svg width="42" height="42" viewBox="-12 -13 42 42" fill="none" xmlns="http://www.w3.org/2000/svg"><path fill-rule="evenodd" clip-rule="evenodd" d="M17.831 0H.169C.085 0 0 .087 0 .174V15.79c0 .087.085.174.169.174h17.662c.085 0 .169-.087.169-.174V.174C18 .087 17.916 0 17.831 0zm-2.536 1.649c0-.174.084-.26.253-.26h.845c.17 0 .254.086.254.26v.867c0 .174-.084.26-.253.26h-.846c-.169 0-.253-.086-.253-.26V1.65zm-2.197 0c0-.174.084-.26.253-.26h.845c.17 0 .254.086.254.26v.867c0 .174-.085.26-.254.26h-.845c-.169 0-.253-.086-.253-.26V1.65zm-11.66 0c0-.174.084-.26.253-.26h8.535c.17 0 .254.086.254.26v.867c0 .174-.085.26-.254.26H1.691c-.169 0-.254-.086-.254-.26V1.65zM16.733 15.01H1.183c-.169 0-.253-.086-.253-.26V4.685c0-.173.084-.26.253-.26h15.55c.168 0 .253.087.253.26V14.75c0 .174-.085.26-.253.26z" fill="#fff"/><path d="M8.852 13H4.36v-.945l1.613-1.63c.478-.49.79-.828.936-1.015.147-.19.252-.367.317-.528.064-.16.096-.328.096-.5 0-.258-.072-.45-.215-.576-.14-.126-.33-.19-.567-.19-.249 0-.49.058-.725.172a3.742 3.742 0 0 0-.734.488L4.343 7.4c.316-.27.578-.46.786-.57a2.82 2.82 0 0 1 .682-.256 3.41 3.41 0 0 1 .826-.092c.401 0 .756.073 1.063.22.308.146.547.351.716.615.17.264.255.565.255.905 0 .296-.052.574-.158.835a3.128 3.128 0 0 1-.483.796c-.217.272-.6.66-1.152 1.164l-.826.778v.061h2.8V13zm5.079-1.332h-.774V13H11.83v-1.332H9.088v-.944l2.817-4.149h1.252v4.039h.774v1.054zm-2.101-1.054v-1.09c0-.182.007-.445.022-.791.014-.346.026-.546.035-.602h-.035c-.109.24-.239.474-.391.703l-1.178 1.78h1.547z" fill="#fff"/></svg>
